X:17
T:Skepparschottis
C:av. Thore H\"ardelin
%O:Sweden
R:Schottis
Z:Bob Wyttenbach 5/30/03 from Andrea Hoag for NFF 2003
M:4/4
L:1/8
%Q:1/4=160
K:E %Transposed from D
P:A
E2GB{d}e2cB|{d}e2cBe2e2|E2GB{d}e2cB|{d}e2 cBd2d2|
B2df{g}a2gf|{g}a2gfb4|b>c' bga2fd|[1f>e ede4:|[2f>e ede3g||
P:B
b>c' bg eg B2|b>c' bg eg B2|g2feg2fe|g>f f=f^f3g|
a>b af df B2|a>b af dfB2|a2gfb2g2|[1f>e ede3g:|[2f>e ede4:|
